dist/img/svg/ic_phone.svg

<svg width="12" height="15" viewBox="0 0 12 15" fill="none" xmlns="http://www.w3.org/2000/svg">
<path d="M8.6244 15C8.23704 15 7.85295 14.9144 7.47738 14.7438C5.8228 13.9925 4.287 12.7688 3.03595 11.2051C1.7849 9.64129 0.805953 7.72152 0.20492 5.6533C0.0117784 4.98864 -0.0452195 4.30254 0.0355666 3.61397C0.111244 2.969 0.311111 2.34286 0.613585 1.80324C0.917394 1.26124 1.32243 0.810435 1.78488 0.499579C2.27803 0.168099 2.8163 0 3.38478 0C3.56159 0 3.71439 0.154417 3.75145 0.370502L4.34004 3.80393C4.36668 3.9594 4.32846 4.12117 4.23853 4.23361L3.23279 5.49074C4.18156 7.84863 5.72106 9.77301 7.60739 10.959L8.6131 9.70179C8.70305 9.58938 8.83249 9.54166 8.95685 9.57491L11.7036 10.3106C11.8765 10.357 12 10.548 12 10.769C12 11.4796 11.8655 12.1524 11.6003 12.7689C11.3516 13.3469 10.991 13.8532 10.5574 14.233C10.1257 14.6111 9.62479 14.8609 9.10879 14.9555C8.9471 14.9852 8.78543 15 8.6244 15ZM3.08517 0.957968C2.33531 1.06144 1.66976 1.55273 1.22779 2.34122C0.730791 3.22786 0.614897 4.31839 0.909824 5.33325C2.06534 9.30943 4.55247 12.4183 7.73343 13.8627C8.5453 14.2314 9.41773 14.0865 10.1271 13.4653C10.7579 12.9128 11.1509 12.0809 11.2337 11.1435L8.9992 10.545L7.94886 11.858C7.83709 11.9977 7.66727 12.0348 7.52426 11.9508C5.29332 10.6407 3.48748 8.38337 2.43939 5.59471C2.3722 5.41592 2.40187 5.20364 2.51364 5.06396L3.56398 3.75105L3.08517 0.957968Z" fill="#E0171A"/>
</svg>

<svg width="12" height="15" viewBox="0 0 12 15" fill="none" xmlns="http://www.w3.org/2000/svg"><path d="M8.624 15c-.387 0-.771-.086-1.147-.256-1.654-.752-3.19-1.975-4.441-3.539S.806 7.722.205 5.653a5.128 5.128 0 01-.17-2.039 4.9 4.9 0 01.579-1.81A3.805 3.805 0 011.784.5a2.827 2.827 0 011.6-.5c.178 0 .33.154.367.37l.589 3.434a.55.55 0 01-.101.43L3.233 5.49c.949 2.358 2.488 4.282 4.374 5.468l1.006-1.257c.09-.113.22-.16.344-.127l2.747.736c.172.046.296.237.296.458a5.03 5.03 0 01-.4 2 4.103 4.103 0 01-1.043 1.464 3.051 3.051 0 01-1.448.723 2.66 2.66 0 01-.485.044zM3.085.958c-.75.103-1.415.595-1.857 1.383C.73 3.228.615 4.318.91 5.333c1.155 3.976 3.642 7.085 6.823 8.53.812.368 1.685.223 2.394-.398.63-.552 1.024-1.384 1.107-2.322l-2.235-.598-1.05 1.313c-.112.14-.282.177-.425.093-2.23-1.31-4.037-3.568-5.085-6.356a.558.558 0 01.075-.531l1.05-1.313L3.085.958z" fill="#E0171A"/></svg>
